X: 1064
T: Hicrân Olacaksa Bu Aşkın Sonu
C: Ferit Sıdal
O: Turkey
F: http://compmusic.upf.edu/node/140
N: rast--sarki--duyek--hicran_olacaksa--ferit_sidal
N: makam= rast
N: form= sarki
N: usul= duyek = 8/4
M: 8/4
L: 1/16
K: C _1/4B ^f  
Q: 1/4=156
%%MIDI tuningsystem comma53
Bc d4 dc e=f ed cd Bc  | AB c4 cB de dc Bc AB  | 
w:  ARANAĞME  |   | 
G2 g4 =fe dc BA Bc d2  | AB Ac Bc AB G8  | \
w:   |   | 
Bc d4 dc e=f ed cd Bc  | 
w:  ARANAĞME  | 
AB c4 cB de dc Bc AB  | G2 g4 =fe dc BA Bc d2  | 
w:   |   | 
AB Ac Bc AB G8  | G4 d8 c2 B2  | A2 B2 c{d}c BA G8  | \
w:   |  Hic rân   |  o la cak *  *  *  *  sa   | 
d2 =f2 e2 d2 d2 e2 c2 B2  | 
w:  bu  aş *  *  kın   | 
c2 d12 z2  | d3/2c/ d2 c3/2B/ c2 B3/2A/ B2 A2 BA  | \
w:  so nu    |  SAZ  | 
G2 =fe d2 c2 BA AG G4  | 
w:   | 
G4 d8 c2 B2  | A2 B2 c{d}c BA G8  | d2 =f2 e2 d2 d2 e2 c2 B2  | \
w:  Hic rân   |  o la cak *  *  *  *  sa   |  bu  aş *  *  kın   | 
c2 d12 z2  | 
w:  so nu    | 
d3/2c/ d2 c3/2B/ c2 B3/2A/ B2 A2 BA  | \
w:  SAZ  | 
G2 =fe d2 c2 B3/2A/ Bc d4  | 
w:   | 
d2 d6 g6 z2  | z2 d4 a2 g2 =f2 e2 d2  | \
w:  Bı rak  git   |  kal bi mi   | 
c2 e4 ed dc d4 cB  | B14 z2  | 
w:  *  del me  *  boş  *  *  ye  |  re    | 
B3/2^A/ B2 c3/2B/ c2 d3/2^c/ d2 e2 f2  | \
w:  SAZ  | 
g2 ag =fe de dc B^A B4  | 
w:   | 
B2 B6 d6 z2  | z2 c4 B2 c2 BA A4  | z2 d4 cB BA B4 AG  | \
w:  Bı rak  git   |  kal bi mi   |  del me  *  boş  *  *  ye  | 
G14 z2  | 
w:  re    | 
d3/2c/ d2 c3/2B/ c2 B3/2A/ B2 A2 BA  | \
w:  SAZ  | 
GA Bc de fa g3/2f/ ef g4  | 
w:   | 
z2 d4 d2 g8  | z2 g4 a2 f2 _7/8ed d4  | \
w:  Mak sa dın   |  naz  e dip   | 
d4 _7/8ed c2 de f4 ed  | d14 z2  | 
w:  üz mek *  *  se  *  *  be  |  ni    | 
d3/2c/ d2 c3/2B/ c2 B3/2A/ B2 A2 BA  | \
w:  SAZ  | 
GA Bc de fa g3/2f/ ef g4  | 
w:   | 
z2 d4 d2 g8  | z2 g4 a2 f2 _7/8ed d4  | \
w:  Mak sa dın   |  naz  e dip   | 
d4 _7/8ed c2 de f4 ed  | d14 z2  | 
w:  üz mek *  *  se  *  *  be  |  ni    | 
d3/2c/ d2 c3/2B/ c2 B3/2A/ B2 A2 BA  | \
w:  SAZ  | 
G2 =fe d2 c2 B3/2A/ Bc d4  | 
w:   | 
z2 d4 d2 g6 z2  | z2 d4 a2 g2 =f2 e2 d2  | \
w:  Git ti ğin   |  yer de  kal   | 
c2 e4 ed dc d4 cB  | 
w:  *  gel me  *  boş  *  *  ye  | 
B14 z2  | B3/2^A/ B2 c3/2B/ c2 d3/2^c/ d2 e2 f2  | \
w:  re    |  SAZ  | 
g2 ag =fe de dc B^A B4  | 
w:   | 
z2 B4 B2 d6 z2  | z2 c4 B2 c2 BA A4  | \
w:  Git ti ğin   |  yer de  kal   | 
z2 d4 cB BA B4 AG  | 
w:  gel me  *  boş  *  *  ye  | 
G14 z2  | |


